X:1
T:Ingatestone, 87.87.87
T:Ingatestone, 87.87.87
T:Arthur Henry Brown, 1894
T:Public Domain Courtesy of the Cyber Hymnal™
C:Arthur Henry Brown, 1894
Z:Public Domain
Z:Courtesy of the Cyber Hymnal™
%%score ( 1 2 ) ( 3 4 )
L:1/8
Q:1/4=125
M:3/4
K:G
V:1 treble 
V:2 treble 
V:3 bass 
V:4 bass 
V:1
 D4 [DG]2 | (G2 F2) [DG]2 | [Dc]4 B2 | ([FA]2 [EG]2) [FA]2 | [GB]4 [Ge]2 | [Gd]4 [GB]2 | %6
 (d2 c2) [GB]2 | [FA]6 | D4 [DG]2 | (G2 F2) [DG]2 | c4 B2 | ([FA]2 [EG]2) [FA]2 | [Gd]4 [GB]2 | %13
 (A2 D2) [DG]2 | [DF]4 [^CE]2 | D6 | [Dd]4 [EB]2 | c4 [Gc]2 | (c2 B2) A2 | [GB]4 [Fc]2 | [Gd]4 G2 | %21
 (A2 B2) [Ac]2 | [GB]4 [FA]2 | G6 |] %24
V:2
 D4 x2 | D4 x2 | x4 (DE) | x6 | x6 | x6 | A4 x2 | x6 | D4 x2 | D4 x2 | (C2 D2) (DE) | x6 | x6 | %13
 D4 x2 | x6 | D6 | x6 | (E2 A2) x2 | F4 A2 | x6 | x4 G2 | E4 x2 | x6 | G6 |] %24
V:3
 [G,B,]4 [B,D]2 | [A,C]4 [G,B,]2 | [F,A,]4 [G,B,]2 | [D,D]4 [D,D]2 | [G,D]4 [C,C]2 | %5
 [B,,D]4 [E,E]2 | [B,,E]4 D2 | [D,D]6 | [G,B,]4 [G,B,]2 | [A,C]4 [G,B,]2 | %10
 ([E,G,]2 [F,A,]2) (B,^C) | [D,D]4 [C,D]2 | [B,,D]4 [G,D]2 | (D2 A,2) [B,D]2 | (D2 A,2) [A,,G,]2 | %15
 [D,F,]6 | [B,,F,]4 [E,^G,]2 | A,4 [A,E]2 | [D,D]4 [F,D]2 | [G,D]4 [A,C]2 | B,4 [E,B,]2 | %21
 [C,C]4 [C,E]2 | [D,D]4 [D,C]2 | [G,,B,]6 |] %24
V:4
 x6 | x6 | x6 | x6 | x6 | x6 | x4 (B,,C,) | x6 | x6 | x6 | x4 G,2 | x6 | x6 | F,4 x2 | A,4 x2 | %15
 x6 | x6 | A,4 x2 | x6 | x6 | (B,2 G,2) x2 | x6 | x6 | x6 |] %24

